!!!OTL: Der Schreiber im Garten
!!!ARE: Europa, Mitteleuropa, Deutschland
!!!SCT: A0071
!!!YEM: Copyright 1995, estate of Helmut Schaffrath.
**kern
*ICvox
*Ivox
*M4/2
*k[b-]
*F:
{2d
=1
2f
2f
2g
2g
=2
2a
2a
2a}
{2a
=3
2g
2a
2b-
2b-
=4
2a
2a
2g}
{2g
=5
2a
2a
2f
2f
=6
2e
2d
1c}
=7
{2e
2f
2e
2d
=8
2g
2a
2b-}
{2b-
=9
2a
4g
4f
2e
2g
=10
4b-
4a
2g
2f}
==
!!!AGN: Romanze, Ballade, Lied
!! Jonisch, Anfang dorisch. Melodie aus dem 15. Jh., mitgeteilt in
!!    durch None im Anzeiger VI(1837) Beilage II No. 5.
!!!ONB: ESAC (Essen Associative Code) Database: ALTDEU
!!!AMT: simple quadruple
!!!AIN: vox
!!!EED: Helmut Schaffrath
!!!EEV: 1.0
*-
